X: 23904
T: Loch Leven Castle
R: hornpipe
M: 4/4
K: Edorian
|:B,D|E2EF EDB,D|EDEF GFGA|Bdce dBAG|F2D2 D2GF|
E2EF EDB,D|EDEF GFGA|Bdce dBAF|G2E2E2:|
|:Bd|e2ef edBd|edef edB2|ABde dBAG|F2D2 D2GF|
E2EF EDB,D|EDEF GFGA|Bdce dBAF|G2E2E2:|

